src/assets/duotone/Wallet2.svg

<svg width="24" height="24" viewBox="0 0 24 24"  xmlns="http://www.w3.org/2000/svg">
<path d="M22.0002 10.97V13.03C22.0002 13.58 21.5602 14.03 21.0002 14.05H19.0402C17.9602 14.05 16.9702 13.26 16.8802 12.18C16.8202 11.55 17.0602 10.96 17.4802 10.55C17.8502 10.17 18.3602 9.95001 18.9202 9.95001H21.0002C21.5602 9.97001 22.0002 10.42 22.0002 10.97Z" />
<path opacity="0.4" d="M17.48 10.55C17.06 10.96 16.82 11.55 16.88 12.18C16.97 13.26 17.96 14.05 19.04 14.05H21V15.5C21 18.5 19 20.5 16 20.5H7C4 20.5 2 18.5 2 15.5V8.5C2 5.78 3.64 3.88 6.19 3.56C6.45 3.52 6.72 3.5 7 3.5H16C16.26 3.5 16.51 3.50999 16.75 3.54999C19.33 3.84999 21 5.76 21 8.5V9.95001H18.92C18.36 9.95001 17.85 10.17 17.48 10.55Z" />
<path d="M13 9.75H7C6.59 9.75 6.25 9.41 6.25 9C6.25 8.59 6.59 8.25 7 8.25H13C13.41 8.25 13.75 8.59 13.75 9C13.75 9.41 13.41 9.75 13 9.75Z" />
</svg>

<?xml version="1.0" encoding="UTF-8"?>
<svg width="24" height="24" viewBox="0 0 24 24" xmlns="http://www.w3.org/2000/svg">
 <path d="m22 10.97v2.06c0 0.55-0.44 1-1 1.02h-1.96c-1.08 0-2.07-0.79-2.16-1.87-0.06-0.63 0.18-1.22 0.6-1.63 0.37-0.38 0.88-0.59999 1.44-0.59999h2.08c0.56 0.02 1 0.46999 1 1.02z"/>
 <path d="m17.48 10.55c-0.42 0.41-0.66 1-0.6 1.63 0.09 1.08 1.08 1.87 2.16 1.87h1.96v1.45c0 3-2 5-5 5h-9c-3 0-5-2-5-5v-7c0-2.72 1.64-4.62 4.19-4.94 0.26-0.04 0.53-0.06 0.81-0.06h9c0.26 0 0.51 0.00999 0.75 0.04999 2.58 0.3 4.25 2.21 4.25 4.95v1.45h-2.08c-0.56 0-1.07 0.21999-1.44 0.59999z" opacity=".4"/>
 <path d="m13 9.75h-6c-0.41 0-0.75-0.34-0.75-0.75s0.34-0.75 0.75-0.75h6c0.41 0 0.75 0.34 0.75 0.75s-0.34 0.75-0.75 0.75z"/>
</svg>
